X:4088
T:Mazurca
O:england
C:Tre Martelli: Omi e Paiz 8b
M:3/4
L:1/8
K:G
A4c2|e4A2|e2d2c2|d4B2|\
G4B2|d4G2|edc2B2|1 A4z2:|2 A2A2z2||\
|:Bc d2 cB|AB c4|cd e2 dc|Bc d4|1 GA Bc dg|\
f2f3f|e2e3f|ef/e/ d4:|2 ed ce dc |\
d2Bd gg|fe dc BA|G2G2z2||


